assets/img/braze_icons/cpu-chip-02.svg

<svg fill="none" height="24" viewBox="0 0 24 24" width="24" xmlns="http://www.w3.org/2000/svg"><path clip-rule="evenodd" d="m9 1c.55229 0 1 .44772 1 1v2h4v-2c0-.55228.4477-1 1-1s1 .44772 1 1v2.02714c.0868.00479.1707.01042.2518.01705.5621.04593 1.0788.14449 1.5642.39178.7526.3835 1.3645.99542 1.748 1.74807.2473.48533.3459 1.00204.3918 1.56413.0066.08116.0123.16508.0171.25183h2.0271c.5523 0 1 .44772 1 1 0 .55229-.4477 1-1 1h-2v3h2c.5523 0 1 .4477 1 1s-.4477 1-1 1h-2.0016c-.0033.4755-.0131.891-.0426 1.2518-.0459.5621-.1445 1.0788-.3918 1.5642-.3835.7526-.9954 1.3645-1.748 1.748-.4854.2473-1.0021.3459-1.5642.3918-.0811.0066-.165.0123-.2518.0171v2.0271c0 .5523-.4477 1-1 1s-1-.4477-1-1v-2h-4v2c0 .5523-.44771 1-1 1-.55228 0-1-.4477-1-1v-2.0271c-.08675-.0048-.17067-.0105-.25182-.0171-.5621-.0459-1.07881-.1445-1.56414-.3918-.75265-.3835-1.36457-.9954-1.74807-1.748-.24729-.4854-.34585-1.0021-.39178-1.5642-.02947-.3608-.0393-.7763-.04256-1.2518h-2.00163c-.55228 0-1-.4477-1-1s.44772-1 1-1h2v-3h-2c-.55228 0-1-.44771-1-1 0-.55228.44772-1 1-1h2.02714c.00479-.08675.01042-.17067.01705-.25182.04593-.5621.14449-1.07881.39178-1.56414.3835-.75265.99542-1.36457 1.74807-1.74807.48533-.24729 1.00204-.34585 1.56413-.39178.08116-.00663.16508-.01226.25183-.01705v-2.02714c0-.55228.44772-1 1-1z" fill="#801ed7" fill-rule="evenodd"/></svg>

<svg width="24" height="24" viewBox="0 0 24 24" fill="none" xmlns="http://www.w3.org/2000/svg">
<path fill-rule="evenodd" clip-rule="evenodd" d="M9 1C9.55229 1 10 1.44772 10 2V4H14V2C14 1.44772 14.4477 1 15 1C15.5523 1 16 1.44772 16 2V4.02714C16.0868 4.03193 16.1707 4.03756 16.2518 4.04419C16.8139 4.09012 17.3306 4.18868 17.816 4.43597C18.5686 4.81947 19.1805 5.43139 19.564 6.18404C19.8113 6.66937 19.9099 7.18608 19.9558 7.74817C19.9624 7.82933 19.9681 7.91325 19.9729 8H22C22.5523 8 23 8.44772 23 9C23 9.55229 22.5523 10 22 10H20V13H22C22.5523 13 23 13.4477 23 14C23 14.5523 22.5523 15 22 15H19.9984C19.9951 15.4755 19.9853 15.891 19.9558 16.2518C19.9099 16.8139 19.8113 17.3306 19.564 17.816C19.1805 18.5686 18.5686 19.1805 17.816 19.564C17.3306 19.8113 16.8139 19.9099 16.2518 19.9558C16.1707 19.9624 16.0868 19.9681 16 19.9729V22C16 22.5523 15.5523 23 15 23C14.4477 23 14 22.5523 14 22V20H10V22C10 22.5523 9.55229 23 9 23C8.44772 23 8 22.5523 8 22V19.9729C7.91325 19.9681 7.82933 19.9624 7.74818 19.9558C7.18608 19.9099 6.66937 19.8113 6.18404 19.564C5.43139 19.1805 4.81947 18.5686 4.43597 17.816C4.18868 17.3306 4.09012 16.8139 4.04419 16.2518C4.01472 15.891 4.00489 15.4755 4.00163 15H2C1.44772 15 1 14.5523 1 14C1 13.4477 1.44772 13 2 13H4V10H2C1.44772 10 1 9.55229 1 9C1 8.44772 1.44772 8 2 8H4.02714C4.03193 7.91325 4.03756 7.82933 4.04419 7.74818C4.09012 7.18608 4.18868 6.66937 4.43597 6.18404C4.81947 5.43139 5.43139 4.81947 6.18404 4.43597C6.66937 4.18868 7.18608 4.09012 7.74817 4.04419C7.82933 4.03756 7.91325 4.03193 8 4.02714V2C8 1.44772 8.44772 1 9 1Z" fill="#801ED7"/>
</svg>
